X:4715
T:O'Connor's March
O:england
M:12/8
L:1/8
K:D
F|G2F G2F G2A B2c|dcB edc dcB AFE|D2F A3 BAF AFE|D2F A3 BAF A2F|
G2F G2F G2A B2c|dcB edc dcB A3|Bee e2f e2d B2A|F2G FGF E3 E2F|
GFG E2F GFG EAG|F/G/AF DAG F/G/AF DFA|GFG B,EF G2A B2c|dcB edc dcB A3|
G/A/BG E2F G/A/BG EAG|F/G/AF DAG F/G/AF DFA|Bee e2f e2d B2A|F2G FGF E3 E2||
